brandFactory_export/3.Masa/Documento_Archivo CSS_3Masa.svg

<?xml version="1.0" encoding="UTF-8"?>
<svg width="24px" height="24px" viewBox="0 0 24 24" version="1.1" xmlns="http://www.w3.org/2000/svg" xmlns:xlink="http://www.w3.org/1999/xlink">
    <title>3.Masa/Documento_Archivo CSS_3Masa</title>
    <g id="Symbols" stroke="none" stroke-width="1" fill="none" fill-rule="evenodd">
        <g id="3.Masa/Documento_Archivo-CSS_3Masa" fill="#5CB615" fill-rule="nonzero">
            <path d="M16.2117647,-2.66453526e-13 C16.4907563,-2.66453526e-13 16.7495798,0.104201681 16.9478992,0.295798319 L23.3042017,6.44705882 C23.4386555,6.57815126 23.5159664,6.74285714 23.5663866,6.91428571 C23.6033613,7.00504202 23.6235294,7.09915966 23.6235294,7.19663866 L23.6235294,21.9630252 C23.6235294,22.8638655 22.8504202,23.6235294 21.9327731,23.6235294 L7.31764706,23.6235294 C6.41680672,23.6235294 5.62689076,22.8470588 5.62689076,21.9630252 L5.66722689,18.6352941 L2.90756303,18.6352941 C1.30084034,18.6319328 0.00336134476,17.3310924 2.19149143e-10,15.7277311 L2.19149143e-10,10.8168067 C2.19149143e-10,9.21008403 1.30084034,7.9092437 2.90420168,7.90588235 L5.62352941,7.90588235 L5.62352941,1.6605042 C5.62352941,0.789915966 6.4302521,-2.66453526e-13 7.31428571,-2.66453526e-13 L16.2117647,-2.66453526e-13 Z M14.7193277,9.36470588 L2.90420168,9.36470588 C2.10420168,9.36470588 1.45546219,10.0134454 1.45546219,10.8168067 L1.45546219,15.7277311 C1.45546219,16.5277311 2.10420168,17.1798319 2.90420168,17.1798319 L14.7193277,17.1798319 C15.5193277,17.1798319 16.1680672,16.5277311 16.1680672,15.7277311 L16.1680672,10.8168067 C16.1680672,10.0168067 15.5193277,9.36470588 14.7193277,9.36470588 Z M8.76638655,10.9747899 C9.18991597,10.9747899 9.65378151,11.0386555 9.99327731,11.1563025 L9.83865546,11.902521 C9.4789916,11.805042 9.09243697,11.7478992 8.78319328,11.7478992 C8.24201681,11.7478992 8.07058824,11.9394958 8.07058824,12.2184874 C8.07058824,13.0789916 10.312605,12.487395 10.312605,14.205042 C10.312605,14.5983193 10.1781513,14.9109244 9.94621849,15.1294118 C9.63697479,15.4184874 9.22016807,15.5462185 8.59159664,15.5462185 C8.03361345,15.5394958 7.57983193,15.4689076 7.13613445,15.3142857 L7.2907563,14.5512605 C7.67731092,14.6857143 8.18487395,14.7697479 8.50420168,14.7697479 C9.09579832,14.7697479 9.37142857,14.6151261 9.37142857,14.2117647 C9.37142857,13.3882353 7.12941176,13.9865546 7.12941176,12.2588235 C7.12941176,11.3647059 7.82857143,10.9747899 8.76638655,10.9747899 Z M12.5579832,10.9747899 C12.9815126,10.9747899 13.4453782,11.0386555 13.7848739,11.1563025 L13.6302521,11.902521 C13.2705882,11.805042 12.8840336,11.7478992 12.5747899,11.7478992 C12.0336134,11.7478992 11.8621849,11.9394958 11.8621849,12.2184874 C11.8621849,13.0789916 14.1042017,12.487395 14.1042017,14.205042 C14.1042017,14.5983193 13.9697479,14.9109244 13.7378151,15.1294118 C13.4285714,15.4184874 13.0117647,15.5462185 12.3831933,15.5462185 C11.8285714,15.5394958 11.3714286,15.4689076 10.9277311,15.3142857 L11.0823529,14.5512605 C11.4689076,14.6857143 11.9764706,14.7697479 12.2957983,14.7697479 C12.887395,14.7697479 13.1630252,14.6151261 13.1630252,14.2117647 C13.1630252,13.3882353 10.9210084,13.9865546 10.9210084,12.2588235 C10.9210084,11.3647059 11.6201681,10.9747899 12.5579832,10.9747899 Z M5.4487395,10.9747899 C5.82857143,10.9747899 6.31596639,11.0588235 6.59831933,11.1731092 L6.47058824,11.9058824 C6.13109244,11.8084034 5.80168067,11.7512605 5.52605042,11.7512605 C4.58151261,11.7512605 4.36302521,12.3731092 4.36302521,13.2470588 C4.36302521,13.7680672 4.4605042,14.205042 4.6789916,14.4470588 C4.87058824,14.6655462 5.14957983,14.7630252 5.64369748,14.7630252 C5.85546219,14.7630252 6.19495798,14.7226891 6.45378151,14.6722689 L6.55798319,15.405042 C6.29579832,15.4823529 5.81176471,15.5394958 5.45210084,15.5394958 C4.67226891,15.5394958 4.18487395,15.3546218 3.85546219,15.0084034 C3.48235294,14.6084034 3.3210084,14.0369748 3.3210084,13.2739496 C3.3210084,11.8991597 3.94285714,10.9747899 5.4487395,10.9747899 Z M16.6151261,2.00336134 L16.6151261,4.1210084 C16.6151261,4.91092437 16.8739496,5.57647059 17.3613445,6.05042017 C17.8588235,6.52773109 18.5579832,6.78319328 19.3882353,6.78319328 L21.5529412,6.78319328 L16.6151261,2.00336134 Z" id="Documento_Archivo-CSS_3Masa"></path>
        </g>
    </g>
</svg>

<svg width="24" height="24" viewBox="0 0 24 24" xmlns="http://www.w3.org/2000/svg"><path d="M16.212 0c.279 0 .538.104.736.296l6.356 6.151c.135.131.212.296.262.467.037.091.058.185.058.283v14.766c0 .9-.774 1.66-1.691 1.66H7.318c-.901 0-1.691-.776-1.691-1.66l.04-3.328h-2.76A2.913 2.913 0 010 15.728v-4.911a2.91 2.91 0 012.904-2.911h2.72V1.66C5.624.79 6.43 0 7.314 0h8.898zm-1.493 9.365H2.904c-.8 0-1.449.648-1.449 1.452v4.91c0 .8.65 1.453 1.45 1.453h11.814c.8 0 1.45-.652 1.45-1.452v-4.911c0-.8-.65-1.452-1.45-1.452zm-5.953 1.61c.424 0 .888.064 1.227.181l-.154.747a4.263 4.263 0 00-1.056-.155c-.541 0-.712.191-.712.47 0 .861 2.242.27 2.242 1.987 0 .393-.135.706-.367.924-.309.29-.726.417-1.354.417-.558-.007-1.012-.077-1.456-.232l.155-.763c.386.135.894.219 1.213.219.592 0 .867-.155.867-.558 0-.824-2.242-.225-2.242-1.953 0-.894.7-1.284 1.637-1.284zm3.792 0c.424 0 .887.064 1.227.181l-.155.747a4.263 4.263 0 00-1.055-.155c-.541 0-.713.191-.713.47 0 .861 2.242.27 2.242 1.987 0 .393-.134.706-.366.924-.31.29-.726.417-1.355.417-.554-.007-1.012-.077-1.455-.232l.154-.763c.387.135.894.219 1.214.219.591 0 .867-.155.867-.558 0-.824-2.242-.225-2.242-1.953 0-.894.7-1.284 1.637-1.284zm-7.11 0c.38 0 .868.084 1.15.198l-.127.733a3.558 3.558 0 00-.945-.155c-.944 0-1.163.622-1.163 1.496 0 .521.098.958.316 1.2.192.219.47.316.965.316.211 0 .551-.04.81-.09l.104.732c-.262.077-.746.134-1.106.134-.78 0-1.267-.184-1.597-.53-.373-.4-.534-.972-.534-1.735 0-1.375.622-2.3 2.128-2.3zm11.167-8.972v2.118c0 .79.259 1.455.746 1.93.498.477 1.197.732 2.027.732h2.165l-4.938-4.78z" fill="#5CB615" fill-rule="nonzero"/></svg>
